img/icon/call-teacher.svg

<svg width="20" height="14" fill="none" xmlns="http://www.w3.org/2000/svg"><path d="M13.375 8.347l3.795 3.054c.736.593 1.83.069 1.83-.876v-7.05c0-.945-1.094-1.469-1.83-.876l-3.795 3.054M11.125 13H3.25A2.25 2.25 0 0 1 1 10.75v-7.5A2.25 2.25 0 0 1 3.25 1h7.875a2.25 2.25 0 0 1 2.25 2.25v7.5a2.25 2.25 0 0 1-2.25 2.25z" stroke="#fff" stroke-width="1.5" stroke-linecap="round" stroke-linejoin="round"/></svg>

<svg width="20" height="14" viewBox="0 0 20 14" fill="none" xmlns="http://www.w3.org/2000/svg">
<path d="M13.375 8.347L17.17 11.401C17.906 11.994 19 11.47 19 10.525V3.475C19 2.53 17.906 2.006 17.17 2.599L13.375 5.653M11.125 13H3.25C2.007 13 1 11.993 1 10.75V3.25C1 2.007 2.007 1 3.25 1H11.125C12.368 1 13.375 2.007 13.375 3.25V10.75C13.375 11.993 12.368 13 11.125 13Z" stroke="white" stroke-width="1.5" stroke-linecap="round" stroke-linejoin="round"/>
</svg>
